X:1
T:Title
%%score { 1 | ( 2 3 ) }
L:1/8
Q:1/4=100
M:4/4
K:D
V:1 treble nm="Grand Piano"
V:2 bass 
V:3 bass 
V:1
 F2 F>=F ^F2 D>F | [FA]2 [FA]>[=F^G] [^FA]4 | G2 G>F G3 F | B>A A>F [CE]4 | F2 F>=F ^F2 D>F | %5
w: H.~C.~Blosser * * * * *|||||
 [FA]2 [FA]>[=F^G] [^FA]3 F | B2 A>G F D2 [DE] | [DF]2 [DF]>[CE] D4 | C2 C>D E2 E>C | D2 D>E F4 | %10
w: |||||
 [B,DG]2 [B,DG]>[A,DF] B A2 D | [DF]2 [CE]2 [CE]4 | [DF]2 [DF]>[EG] [FA]2 [FA]>[DF] | %13
w: |||
 [DG]2 [DG]>[FA] [GB]4 | [Gd]2 [Gc]>[GB] A F2 F | [DF]3 [CE] D4 | D2 F>[FA] [Ad]3 c | %17
w: ||||
 (3BG[DG] (3[Bd][Ac][GB] [FA]3 F | G2 F>F B3 d | (3dcB (3:2:2A2 ^G [CA]4 | %20
w: |||
 [DA]2 [DF]>[FA] [Af]3 [Ge] | (3:2:2[Fd]2 A (3FGA B3 [^Ge] | c3 d [Ec]>[CEA] [DAf]>[Ge] | %23
w: |||
 [Fd]6 z2 |] %24
w: |
V:2
 [D,A,D]2 [D,A,D]>[D,^G,D] [D,A,D]2 [D,F,A,]>[D,A,D] | [D,D]2 [D,D]>[D,D] [D,D]4 | %2
 [G,B,D]2 [G,B,D]>[G,^A,D] [G,B,D]3 [D,A,D] | [D,D]2 z2 z4 | %4
 [D,A,D]2 [D,A,D]>[D,^G,D] [D,A,D]2 [D,F,A,]>[D,A,D] | [D,D]2 [D,D]>[D,D] [D,D]3 [D,D] | %6
 [G,D]2 [F,D]>[E,A,C] [D,A,D] [D,F,]2 [B,,^G,] | [A,,A,]2 [A,,A,]>[A,,G,] [D,F,]4 | %8
 [A,,E,A,]2 [A,,E,A,]>[A,,F,A,] [A,,G,A,]2 [A,,G,A,]>[A,,E,A,] | %9
 [D,F,A,]2 [D,F,A,]>[D,G,A,] [D,A,D]4 | G,,2 G,,>G,, [D,G,D] [D,F,D]2 [D,F,] | %11
 [A,,A,]2 [A,,A,]2 [A,,A,]4 | [D,A,]2 [D,A,]>[D,A,] [D,A,]2 [D,A,]>[D,A,] | %13
 [B,,G,]2 [B,,G,]>[A,,G,] [G,,G,]4 | [G,,B,]2 [G,,A,]>[G,,G,] [D,F,D] [D,D]2 [B,,F,] | %15
 [A,,A,]3 [A,,G,] [D,F,]4 | [D,F,]2 [D,A,D]>[D,A,] [F,A,]3 [F,A,F] | %17
 (3[G,B,D][G,B,D][G,B,] (3:2:2G,2 [G,B,] [D,D]3 [D,D] | [B,D]2 [A,=CD]>[A,CD] [G,B,D]3 [F,A,D] | %19
 E2 z2 z4 | [D,F,]2 [D,A,]>[D,A,] [D,D]3 [D,A,] | %21
 (3:2:2[D,D]2 [D,D][K:treble] (3[A,-D][A,CE][A,=CF] [G,B,G]3 [E,B,] | %22
 [A,A]3 [A,F][K:bass] [A,,A,]>A,, A,,>[A,,A,] | [D,A,]6 z2 |] %24
V:3
 x8 | x8 | x8 | G,>F, [F,A,D]>[D,A,D] [A,,A,]4 | x8 | x8 | x8 | x8 | x8 | x8 | x8 | x8 | x8 | x8 | %14
 x8 | x8 | x8 | x8 | x8 | (3[E,-B,][E,G,][E,^G,D] (3:2:2[E,A,C]2 [E,B,D] [A,,A,]4 | x8 | %21
 x2[K:treble] x6 | x4[K:bass] x4 | x8 |] %24

